!!!OTL: LUSTIG SEID IHR LIEBEN BRUEDER
!!!ARE: Europa, Mitteleuropa, Deutschland
!!!SCT: B0730E
!!!YEM: Copyright 1995, estate of Helmut Schaffrath.
**kern
*ICvox
*Ivox
*M4/4
*k[]
*C:
=1
{8G
8G
8G
8G
8c
8G
8E
8C
=2
8c
16B
16c
8d
16c
16d
2e}
=3
{8G
8G
8G
8G
8c
8G
8E
8C
=4
8c
16B
16c
8d
16c
16d
2e}
=5
{8e
8e
16e
16d
16c
16B
8A
8A
4A
=6
8d
8d
16d
16e
16d
16c
16B
16c
16B
16A
8G}
{8G
=7
8c
8c
8d
8d
4e
8B
8B
=8
1c}
==
!!!AGN: Trink - Lied
!!!ONB: ESAC (Essen Associative Code) Database: BOEHME
!!!AMT: simple quadruple
!!!AIN: vox
!!!EED: Helmut Schaffrath
!!!EEV: 1.0
*-
